assets/luts/cinematic.cube
TITLE "Cinematic Teal Orange"
LUT_3D_SIZE 8
DOMAIN_MIN 0.000000 0.000000 0.000000
DOMAIN_MAX 0.903226 0.903226 0.903226
0.000000 0.050000 0.100000
0.000000 0.049039 0.098064
0.118998 0.046607 0.093028
0.290866 0.043412 0.086070
0.485950 0.040098 0.078333
0.677898 0.037160 0.070886
0.840270 0.034924 0.064716
0.946561 0.033584 0.060740
0.000000 0.092493 0.093523
0.000000 0.091595 0.091619
0.122431 0.089330 0.086666
0.294415 0.086368 0.079825
0.489632 0.083318 0.072220
0.681710 0.080641 0.064903
0.844192 0.078625 0.058843
0.950555 0.077429 0.054939
0.000000 0.204988 0.077038
0.009272 0.204257 0.075217
0.131944 0.202427 0.070483
0.304235 0.200078 0.063947
0.499799 0.197723 0.056689
0.692218 0.195728 0.049714
0.854989 0.194289 0.043942
0.961541 0.193470 0.040228
0.000000 0.365360 0.055138
0.023557 0.364862 0.053433
0.146535 0.363645 0.049005
0.319256 0.362155 0.042899
0.515307 0.360774 0.036129
0.708205 0.359737 0.029633
0.871381 0.359109 0.024266
0.978197 0.358820 0.020816
0.000000 0.550750 0.032048
0.041508 0.550517 0.030475
0.164833 0.549994 0.026395
0.338041 0.549479 0.020776
0.534645 0.549204 0.014558
0.728087 0.549254 0.008606
0.891722 0.549544 0.003698
0.998839 0.549856 0.000549
0.013847 0.736632 0.011161
0.060968 0.736659 0.009719
0.184635 0.736819 0.005979
0.358322 0.737262 0.000840
0.555469 0.738074 0.000000
0.749445 0.739192 0.000000
0.913531 0.740385 0.000000
1.000000 0.741288 0.000000
0.031588 0.896556 0.000000
0.078818 0.896803 0.000000
0.202774 0.897540 0.000000
0.376866 0.898793 0.000000
0.574473 0.900523 0.000000
0.768900 0.902545 0.000000
0.933368 0.904501 0.000000
1.000000 0.905904 0.000000
0.043889 1.000000 0.000000
0.091192 1.000000 0.000000
0.215336 1.000000 0.000000
0.389693 1.000000 0.000000
0.587600 1.000000 0.000000
0.782323 1.000000 0.000000
0.947040 1.000000 0.000000
1.000000 1.000000 0.000000
0.000000 0.049671 0.144993
0.000000 0.048717 0.143060
0.119339 0.046302 0.138033
0.291219 0.043130 0.131086
0.486317 0.039843 0.123362
0.678278 0.036931 0.115929
0.840661 0.034717 0.109769
0.946959 0.033392 0.105801
0.000000 0.092186 0.138527
0.000321 0.091295 0.136625
0.122783 0.089046 0.131681
0.294780 0.086108 0.124852
0.490010 0.083085 0.117260
0.682101 0.080433 0.109957
0.844594 0.078440 0.103907
0.950964 0.077258 0.100011
0.000000 0.204737 0.122070
0.009644 0.204012 0.120252
0.132325 0.202200 0.115526
0.304628 0.199874 0.109002
0.500205 0.197546 0.101758
0.692637 0.195577 0.094796
0.855419 0.194160 0.089035
0.961978 0.193356 0.085328
0.000000 0.365189 0.100209
0.023969 0.364697 0.098507
0.146956 0.363496 0.094088
0.319688 0.362030 0.087994
0.515753 0.360676 0.081237
0.708664 0.359666 0.074754
0.871850 0.359059 0.069398
0.978674 0.358785 0.065956
0.000000 0.550669 0.077164
0.041965 0.550442 0.075595
0.165299 0.549936 0.071522
0.338518 0.549444 0.065916
0.535136 0.549196 0.059711
0.728590 0.549272 0.053772
0.892236 0.549584 0.048876
0.999361 0.549911 0.045734
0.014345 0.736639 0.056321
0.061469 0.736673 0.054882
0.185144 0.736849 0.051151
0.358843 0.737316 0.046024
0.556004 0.738154 0.040363
0.749993 0.739299 0.034957
0.914090 0.740514 0.030513
1.000000 0.741432 0.027666
0.032123 0.896638 0.040105
0.079357 0.896891 0.038776
0.203321 0.897645 0.035333
0.377424 0.898922 0.030611
0.575045 0.900679 0.025409
0.769485 0.902726 0.020456
0.933964 0.904705 0.016392
1.000000 0.906122 0.013795
0.044449 1.000000 0.030191
0.091754 1.000000 0.028933
0.215907 1.000000 0.025680
0.390276 1.000000 0.021222
0.588197 1.000000 0.016321
0.782932 1.000000 0.011663
0.947661 1.000000 0.007849
1.000000 1.000000 0.005415
0.000000 0.048820 0.263038
0.000000 0.047882 0.261113
0.120241 0.045511 0.256108
0.292152 0.042401 0.249192
0.487285 0.039184 0.241503
0.679280 0.036341 0.234104
0.841692 0.034186 0.227974
0.948010 0.032899 0.224025
0.000000 0.091391 0.256600
0.001229 0.090516 0.254707
0.123713 0.088311 0.249785
0.295741 0.085435 0.242986
0.491006 0.082483 0.235429
0.683131 0.079900 0.228161
0.845653 0.077965 0.222141
0.952043 0.076821 0.218263
0.000000 0.204091 0.240217
0.010626 0.203382 0.238407
0.133329 0.201614 0.233703
0.305663 0.199350 0.227211
0.501275 0.197091 0.220001
0.693742 0.195191 0.213074
0.856552 0.193833 0.207342
0.963131 0.193067 0.203654
0.000000 0.364750 0.218460
0.025055 0.364275 0.216767
0.148064 0.363118 0.212369
0.320827 0.361714 0.206306
0.516927 0.360430 0.199584
0.709872 0.359488 0.193136
0.873088 0.358940 0.187809
0.979931 0.358704 0.184386
0.000000 0.550466 0.195533
0.043168 0.550255 0.193972
0.166525 0.549793 0.189922
0.339775 0.549364 0.184346
0.536428 0.549185 0.178177
0.729917 0.549331 0.172272
0.893592 0.549701 0.167405
1.000000 0.550066 0.164282
0.015656 0.736668 0.174806
0.062789 0.736718 0.173376
0.186486 0.736939 0.169666
0.360216 0.737467 0.164570
0.557412 0.738376 0.158944
0.751435 0.739589 0.153573
0.915561 0.740863 0.149157
1.000000 0.741819 0.146330
0.033532 0.896863 0.158688
0.080774 0.897133 0.157367
0.204760 0.897930 0.153947
0.378895 0.899269 0.149255
0.576550 0.901096 0.144088
0.771025 0.903213 0.139169
0.935533 0.905249 0.135135
1.000000 0.906705 0.132557
0.045922 1.000000 0.148838
0.093236 1.000000 0.147589
0.217411 1.000000 0.144357
0.391811 1.000000 0.139930
0.589766 1.000000 0.135064
0.784537 1.000000 0.130440
0.949295 1.000000 0.126656
1.000000 1.000000 0.124242
0.000000 0.047650 0.428736
0.000000 0.046736 0.426823
0.121519 0.044426 0.421849
0.293473 0.041404 0.414977
0.488656 0.038284 0.407337
0.680699 0.035538 0.399987
0.843152 0.033465 0.393898
0.949496 0.032231 0.389975
0.000000 0.090300 0.422338
0.002516 0.089449 0.420457
0.125031 0.087306 0.415566
0.297102 0.084517 0.408811
0.492416 0.081662 0.401303
0.684590 0.079177 0.394083
0.847153 0.077323 0.388104
0.953569 0.076233 0.384253
0.000000 0.203208 0.406060
0.012017 0.202523 0.404261
0.134751 0.200816 0.399589
0.307128 0.198639 0.393139
0.502790 0.196479 0.385979
0.695305 0.194676 0.379100
0.858156 0.193399 0.373409
0.964761 0.192687 0.369748
0.000000 0.364159 0.384449
0.026592 0.363707 0.382767
0.149631 0.362613 0.378400
0.322438 0.361295 0.372381
0.518587 0.360110 0.365708
0.711581 0.359265 0.359308
0.874837 0.358798 0.354022
0.981707 0.358616 0.350625
0.000000 0.550206 0.361687
0.044871 0.550019 0.360138
0.168258 0.549619 0.356119
0.341552 0.549276 0.350586
0.538253 0.549196 0.344466
0.731791 0.549438 0.338610
0.895507 0.549890 0.333783
1.000000 0.550309 0.330687
0.017510 0.736733 0.341123
0.064654 0.736807 0.339704
0.188382 0.737089 0.336026
0.362155 0.737705 0.330973
0.559400 0.738712 0.325396
0.753472 0.740022 0.320074
0.917639 0.741377 0.315699
1.000000 0.742387 0.312898
0.035523 0.897203 0.325142
0.082777 0.897497 0.323833
0.206794 0.898356 0.320443
0.380972 0.899781 0.315795
0.578676 0.901707 0.310678
0.773200 0.903920 0.305807
0.937749 0.906039 0.301814
1.000000 0.907548 0.299263
0.048003 1.000000 0.315382
0.095329 1.000000 0.314145
0.219535 1.000000 0.310944
0.393977 1.000000 0.306560
0.591983 1.000000 0.301744
0.786801 1.000000 0.297168
0.951600 1.000000 0.293425
1.000000 1.000000 0.291037
0.000000 0.046359 0.616688
0.000520 0.045471 0.614788
0.122987 0.043232 0.609849
0.294990 0.040307 0.603026
0.490228 0.037300 0.595442
0.682327 0.034664 0.588146
0.844826 0.032683 0.582103
0.951201 0.031510 0.578211
0.000000 0.089099 0.610334
0.003993 0.088274 0.608466
0.126544 0.086201 0.603611
0.298664 0.083511 0.596904
0.494034 0.080768 0.589453
0.686263 0.078392 0.582287
0.848872 0.076631 0.576354
0.955318 0.075602 0.572534
0.000000 0.202242 0.594174
0.013613 0.201584 0.592389
0.136381 0.199947 0.587751
0.308807 0.197869 0.581351
0.504525 0.195820 0.574246
0.697095 0.194127 0.567422
0.859993 0.192943 0.561778
0.966628 0.192291 0.558146
0.000000 0.363524 0.572728
0.028352 0.363099 0.571060
0.151427 0.362075 0.566728
0.324283 0.360856 0.560758
0.520488 0.359782 0.554141
0.713537 0.359047 0.547796
0.876840 0.358673 0.542556
0.983740 0.358551 0.539190
0.000000 0.549947 0.550154
0.046819 0.549787 0.548619
0.170241 0.549456 0.544634
0.343584 0.549212 0.539151
0.540342 0.549244 0.533087
0.733935 0.549595 0.527285
0.897697 0.550140 0.522505
1.000000 0.550619 0.519439
0.019629 0.736843 0.529775
0.066787 0.736944 0.528369
0.190550 0.737296 0.524726
0.364372 0.738010 0.519722
0.561673 0.739128 0.514201
0.755800 0.740548 0.508933
0.920014 0.741996 0.504605
1.000000 0.743066 0.501834
0.037799 0.897625 0.513950
0.085066 0.897945 0.512654
0.209118 0.898875 0.509300
0.383345 0.900399 0.504701
0.581106 0.902436 0.499639
0.775684 0.904759 0.494823
0.940279 0.906970 0.490876
1.000000 0.908540 0.488355
0.050381 1.000000 0.504292
0.097720 1.000000 0.503068
0.221961 1.000000 0.499902
0.396453 1.000000 0.495568
0.594514 1.000000 0.490807
0.789387 1.000000 0.486286
0.954232 1.000000 0.482589
1.000000 1.000000 0.480232
0.000000 0.045126 0.801480
0.001946 0.044265 0.799594
0.124448 0.042094 0.794689
0.296500 0.039267 0.787915
0.491793 0.036369 0.780386
0.683945 0.033840 0.773144
0.846490 0.031951 0.767147
0.952894 0.030837 0.763284
0.000000 0.087955 0.795172
0.005464 0.087157 0.793317
0.128049 0.085152 0.788495
0.300217 0.082558 0.781837
0.495643 0.079925 0.774441
0.687925 0.077657 0.767329
0.850580 0.075987 0.761442
0.957056 0.075018 0.757651
0.000000 0.201330 0.779127
0.015200 0.200698 0.777355
0.138003 0.199130 0.772752
0.310477 0.197148 0.766400
0.506250 0.195210 0.759350
0.698874 0.193624 0.752580
0.861817 0.192531 0.746981
0.968482 0.191939 0.743380
0.000000 0.362937 0.757844
0.030102 0.362539 0.756189
0.153211 0.361583 0.751892
0.326115 0.360461 0.745969
0.522375 0.359497 0.739407
0.715478 0.358869 0.733116
0.878827 0.358587 0.727922
0.985756 0.358524 0.724586
0.001713 0.549729 0.735455
0.048754 0.549595 0.733932
0.172210 0.549334 0.729982
0.345601 0.549186 0.724547
0.542414 0.549327 0.718538
0.736060 0.549787 0.712790
0.899868 0.550423 0.708055
1.000000 0.550962 0.705019
0.021732 0.736988 0.715256
0.068902 0.737115 0.713864
0.192700 0.737536 0.710255
0.366571 0.738347 0.705300
0.563927 0.739575 0.699833
0.758107 0.741103 0.694620
0.922366 0.742642 0.690337
1.000000 0.743772 0.687596
0.040055 0.898077 0.699585
0.087335 0.898423 0.698302
0.211422 0.899422 0.694982
0.385697 0.901042 0.690432
0.583512 0.903189 0.685425
0.778144 0.905620 0.680663
0.942785 0.907922 0.676761
1.000000 0.909552 0.674270
0.052737 1.000000 0.690027
0.100089 1.000000 0.688816
0.224365 1.000000 0.685685
0.398905 1.000000 0.681399
0.597021 1.000000 0.676693
0.791948 1.000000 0.672226
0.956839 1.000000 0.668575
1.000000 1.000000 0.666247
0.000000 0.044113 0.957695
0.003167 0.043274 0.955820
0.125698 0.041161 0.950944
0.297790 0.038416 0.944210
0.493130 0.035611 0.936728
0.685327 0.033173 0.929532
0.847911 0.031361 0.923573
0.954340 0.030298 0.919736
0.000000 0.087016 0.951423
0.006722 0.086240 0.949580
0.129336 0.084294 0.944787
0.301545 0.081782 0.938170
0.497017 0.079242 0.930820
0.689345 0.077064 0.923754
0.852038 0.075472 0.917905
0.958540 0.074553 0.914140
0.000000 0.200587 0.935477
0.016555 0.199978 0.933716
0.139388 0.198468 0.929142
0.311903 0.196568 0.922831
0.507722 0.194722 0.915828
0.700391 0.193227 0.909103
0.863373 0.192212 0.903543
0.970063 0.191670 0.899966
0.000000 0.362470 0.914331
0.031595 0.362093 0.912687
0.154734 0.361196 0.908419
0.327679 0.360155 0.902538
0.523985 0.359284 0.896022
0.717133 0.358748 0.889777
0.880520 0.358542 0.884621
0.987475 0.358531 0.881310
0.003351 0.549573 0.892098
0.050403 0.549462 0.890586
0.173888 0.549259 0.886666
0.347321 0.549193 0.881272
0.544180 0.549427 0.875309
0.737871 0.549977 0.869606
0.901718 0.550690 0.864910
1.000000 0.551280 0.861900
0.023523 0.737139 0.872053
0.070705 0.737288 0.870672
0.194532 0.737768 0.867092
0.368443 0.738660 0.862177
0.565846 0.739981 0.856758
0.760072 0.741600 0.851590
0.924369 0.743216 0.847345
1.000000 0.744396 0.844630
0.041976 0.898487 0.856511
0.089267 0.898856 0.855240
0.213383 0.899913 0.851949
0.387699 0.901615 0.847439
0.585561 0.903854 0.842479
0.780238 0.906376 0.837762
0.944918 0.908756 0.833899
1.000000 0.910436 0.831434
0.054743 1.000000 0.847038
0.102106 1.000000 0.845839
0.226411 1.000000 0.842736
0.400992 1.000000 0.838491
0.599154 1.000000 0.833832
0.794127 1.000000 0.829411
0.959056 1.000000 0.825798
1.000000 1.000000 0.823495
0.000000 0.043464 1.000000
0.003972 0.042639 1.000000
0.126522 0.040565 1.000000
0.298641 0.037873 1.000000
0.494011 0.035129 1.000000
0.686239 0.032751 1.000000
0.848847 0.030989 1.000000
0.955294 0.029959 1.000000
0.000000 0.086416 1.000000
0.007552 0.085655 1.000000
0.130185 0.083747 1.000000
0.302421 0.081288 1.000000
0.497923 0.078808 1.000000
0.690281 0.076691 1.000000
0.852999 0.075149 1.000000
0.959517 0.074263 1.000000
0.000000 0.200115 1.000000
0.017449 0.199520 1.000000
0.140301 0.198049 1.000000
0.312843 0.196202 1.000000
0.508692 0.194417 1.000000
0.701391 0.192982 1.000000
0.864398 0.192017 1.000000
0.971105 0.191509 1.000000
0.000000 0.362178 1.000000
0.032579 0.361816 1.000000
0.155737 0.360957 1.000000
0.328708 0.359970 1.000000
0.525045 0.359159 0.998493
0.718223 0.358683 0.992277
0.881635 0.358527 0.987147
0.988607 0.358549 0.983852
0.004430 0.549485 0.994587
0.051489 0.549389 0.993083
0.174994 0.549224 0.989181
0.348453 0.549211 0.983814
0.545342 0.549506 0.977881
0.739063 0.550116 0.972209
0.902935 0.550880 0.967538
1.000000 0.551502 0.964544
0.024702 0.737252 0.974643
0.071891 0.737416 0.973268
0.195737 0.737934 0.969708
0.369675 0.738879 0.964820
0.567108 0.740261 0.959431
0.761364 0.741940 0.954292
0.925687 0.743606 0.950073
1.000000 0.744819 0.947374
0.043240 0.898770 0.959186
0.090539 0.899153 0.957921
0.214673 0.900248 0.954649
0.389016 0.902003 0.950166
0.586908 0.904304 0.945236
0.781616 0.906886 0.940550
0.946320 0.909315 0.936712
1.000000 0.911028 0.934263
0.056062 1.000000 0.949768
0.103433 1.000000 0.948575
0.227756 1.000000 0.945492
0.402364 1.000000 0.941274
0.600557 1.000000 0.936645
0.795560 1.000000 0.932254
0.960514 1.000000 0.928666
1.000000 1.000000 0.926380
