assets/luts/cinematic.cube
TITLE "Cinematic Teal Orange"
LUT_3D_SIZE 32
0.000000 0.050000 0.100000
0.000000 0.049935 0.099870
0.000000 0.049747 0.099492
0.000000 0.049444 0.098884
0.000000 0.049039 0.098064
0.021144 0.048541 0.097049
0.049985 0.047962 0.095860
0.082739 0.047314 0.094513
0.118998 0.046607 0.093028
0.158350 0.045853 0.091423
0.200386 0.045062 0.089717
0.244694 0.044245 0.087926
0.290866 0.043412 0.086070
0.338488 0.042572 0.084165
0.387151 0.041735 0.082230
0.436442 0.040907 0.080280
0.485950 0.040098 0.078333
0.535263 0.039312 0.076404
0.583967 0.038558 0.074510
0.631650 0.037838 0.072665
0.677898 0.037160 0.070886
0.722298 0.036526 0.069187
0.764436 0.035940 0.067583
0.803898 0.035405 0.066088
0.840270 0.034924 0.064716
0.873136 0.034499 0.063481
0.902083 0.034133 0.062398
0.926696 0.033827 0.061479
0.946561 0.033584 0.060740
0.961262 0.033407 0.060194
0.970387 0.033297 0.059856
0.973520 0.033260 0.059740
0.000000 0.052837 0.099563
0.000000 0.052772 0.099434
0.000000 0.052584 0.099056
0.000000 0.052283 0.098449
0.000000 0.051880 0.097629
0.021366 0.051384 0.096616
0.050208 0.050808 0.095428
0.082964 0.050163 0.094083
0.119224 0.049459 0.092599
0.158578 0.048708 0.090996
0.200616 0.047921 0.089291
0.244927 0.047108 0.087503
0.291100 0.046280 0.085649
0.338725 0.045444 0.083746
0.387390 0.044611 0.081813
0.436683 0.043788 0.079865
0.486193 0.042983 0.077920
0.535508 0.042202 0.075994
0.584214 0.041452 0.074102
0.631899 0.040737 0.072260
0.678150 0.040063 0.070483
0.722552 0.039432 0.068786
0.764692 0.038850 0.067183
0.804156 0.038319 0.065690
0.840529 0.037842 0.064319
0.873397 0.037420 0.063086
0.902345 0.037056 0.062004
0.926959 0.036752 0.061087
0.946825 0.036511 0.060349
0.961527 0.036335 0.059804
0.970652 0.036226 0.059466
0.973785 0.036189 0.059350
0.000000 0.061103 0.098294
0.000000 0.061039 0.098165
0.000000 0.060853 0.097789
0.000000 0.060556 0.097183
0.000000 0.060158 0.096366
0.022015 0.059669 0.095356
0.050861 0.059100 0.094172
0.083621 0.058464 0.092831
0.119886 0.057770 0.091353
0.159245 0.057029 0.089755
0.201289 0.056253 0.088055
0.245605 0.055452 0.086273
0.291785 0.054636 0.084425
0.339416 0.053813 0.082529
0.388087 0.052993 0.080602
0.437387 0.052183 0.078661
0.486904 0.051391 0.076722
0.536225 0.050623 0.074802
0.584938 0.049885 0.072917
0.632629 0.049183 0.071081
0.678886 0.048521 0.069310
0.723294 0.047903 0.067619
0.765439 0.047332 0.066022
0.804908 0.046811 0.064534
0.841286 0.046343 0.063168
0.874159 0.045930 0.061939
0.903111 0.045574 0.060861
0.927728 0.045277 0.059947
0.947596 0.045041 0.059212
0.962300 0.044868 0.058668
0.971426 0.044762 0.058332
0.974560 0.044726 0.058216
0.000000 0.074439 0.096258
0.000000 0.074376 0.096129
0.000000 0.074195 0.095755
0.000000 0.073904 0.095153
0.000000 0.073514 0.094340
0.023069 0.073035 0.093335
0.051921 0.072479 0.092157
0.084689 0.071856 0.090823
0.120961 0.071178 0.089352
0.160329 0.070454 0.087763
0.202381 0.069696 0.086073
0.246707 0.068914 0.084300
0.292896 0.068117 0.082461
0.340538 0.067315 0.080575
0.389219 0.066515 0.078659
0.438530 0.065726 0.076728
0.488057 0.064955 0.074800
0.537389 0.064209 0.072891
0.586112 0.063492 0.071015
0.633813 0.062810 0.069190
0.680080 0.062167 0.067429
0.724497 0.061568 0.065747
0.766652 0.061015 0.064159
0.806129 0.060511 0.062679
0.842515 0.060058 0.061322
0.875394 0.059659 0.060100
0.904353 0.059315 0.059028
0.928975 0.059029 0.058119
0.948847 0.058801 0.057388
0.963555 0.058635 0.056847
0.972682 0.058533 0.056513
0.975817 0.058498 0.056398
0.000000 0.092493 0.093523
0.000000 0.092432 0.093396
0.000000 0.092256 0.093024
0.000000 0.091974 0.092426
0.000000 0.091595 0.091619
0.024510 0.091131 0.090621
0.053371 0.090591 0.089451
0.086148 0.089987 0.088127
0.122431 0.089330 0.086666
0.161810 0.088629 0.085088
0.203874 0.087895 0.083410
0.248213 0.087138 0.081650
0.294415 0.086368 0.079825
0.342070 0.085593 0.077953
0.390766 0.084822 0.076050
0.440091 0.084061 0.074134
0.489632 0.083318 0.072220
0.538978 0.082600 0.070324
0.587715 0.081911 0.068463
0.635430 0.081257 0.066651
0.681710 0.080641 0.064903
0.726140 0.080067 0.063235
0.768307 0.079538 0.061659
0.807796 0.079057 0.060190
0.844192 0.078625 0.058843
0.877081 0.078245 0.057631
0.906047 0.077918 0.056567
0.930677 0.077645 0.055665
0.950555 0.077429 0.054939
0.965266 0.077271 0.054404
0.974397 0.077174 0.054071
0.977532 0.077141 0.053957
0.000000 0.114919 0.090161
0.000000 0.114860 0.090034
0.000000 0.114690 0.089666
0.000000 0.114419 0.089073
0.001781 0.114054 0.088273
0.026323 0.113607 0.087284
0.055194 0.113088 0.086124
0.087982 0.112508 0.084812
0.124279 0.111876 0.083364
0.163672 0.111203 0.081800
0.205751 0.110499 0.080137
0.250105 0.109774 0.078393
0.296324 0.109037 0.076584
0.343996 0.108296 0.074729
0.392709 0.107559 0.072844
0.442052 0.106834 0.070945
0.491611 0.106127 0.069049
0.540974 0.105443 0.067171
0.589729 0.104789 0.065327
0.637461 0.104169 0.063532
0.683757 0.103586 0.061801
0.728203 0.103043 0.060148
0.770385 0.102545 0.058587
0.809888 0.102091 0.057133
0.846297 0.101686 0.055798
0.879197 0.101329 0.054598
0.908174 0.101022 0.053544
0.932813 0.100767 0.052651
0.952698 0.100565 0.051933
0.967414 0.100418 0.051402
0.976548 0.100327 0.051073
0.979685 0.100297 0.050960
0.000000 0.141371 0.086244
0.000000 0.141316 0.086119
0.000000 0.141154 0.085754
0.000000 0.140894 0.085167
0.003940 0.140546 0.084376
0.028493 0.140120 0.083397
0.057376 0.139625 0.082249
0.090178 0.139072 0.080951
0.126489 0.138471 0.079518
0.165899 0.137831 0.077971
0.207996 0.137163 0.076325
0.252369 0.136475 0.074599
0.298608 0.135776 0.072810
0.346299 0.135075 0.070975
0.395033 0.134379 0.069110
0.444396 0.133695 0.067232
0.493976 0.133030 0.065357
0.543360 0.132388 0.063500
0.592135 0.131774 0.061676
0.639887 0.131194 0.059901
0.686203 0.130649 0.058189
0.730667 0.130144 0.056555
0.772867 0.129681 0.055012
0.812386 0.129261 0.053574
0.848810 0.128885 0.052255
0.881724 0.128556 0.051068
0.910714 0.128274 0.050026
0.935362 0.128039 0.049144
0.955256 0.127854 0.048433
0.969978 0.127719 0.047909
0.979116 0.127636 0.047584
0.982254 0.127608 0.047472
0.000000 0.171509 0.081845
0.000000 0.171456 0.081722
0.000000 0.171303 0.081361
0.000000 0.171057 0.080781
0.006442 0.170728 0.079999
0.031006 0.170325 0.079032
0.059903 0.169858 0.077899
0.092721 0.169336 0.076615
0.129050 0.168770 0.075200
0.168478 0.168167 0.073672
0.210595 0.167539 0.072046
0.254989 0.166894 0.070341
0.301250 0.166239 0.068574
0.348964 0.165583 0.066762
0.397721 0.164934 0.064920
0.447107 0.164297 0.063065
0.496711 0.163678 0.061214
0.546118 0.163083 0.059380
0.594917 0.162516 0.057580
0.642691 0.161981 0.055827
0.689029 0.161481 0.054138
0.733515 0.161018 0.052524
0.775734 0.160594 0.051001
0.815272 0.160212 0.049582
0.851714 0.159871 0.048280
0.884644 0.159573 0.047109
0.913647 0.159318 0.046081
0.938307 0.159107 0.045210
0.958210 0.158941 0.044509
0.972939 0.158820 0.043992
0.982081 0.158746 0.043671
0.985221 0.158720 0.043561
0.000000 0.204988 0.077038
0.000000 0.204938 0.076916
0.000000 0.204795 0.076561
0.000000 0.204565 0.075988
0.009272 0.204257 0.075217
0.033849 0.203879 0.074263
0.062761 0.203443 0.073144
0.095597 0.202955 0.071878
0.131944 0.202427 0.070483
0.171393 0.201866 0.068974
0.213533 0.201282 0.067371
0.257950 0.200684 0.065690
0.304235 0.200078 0.063947
0.351975 0.199472 0.062160
0.400757 0.198874 0.060344
0.450170 0.198289 0.058515
0.499799 0.197723 0.056689
0.549233 0.197180 0.054882
0.598057 0.196664 0.053107
0.645857 0.196179 0.051380
0.692218 0.195728 0.049714
0.736728 0.195311 0.048124
0.778969 0.194932 0.046624
0.818528 0.194591 0.045225
0.854989 0.194289 0.043942
0.887936 0.194025 0.042788
0.916954 0.193801 0.041776
0.941627 0.193616 0.040918
0.961541 0.193470 0.040228
0.976278 0.193365 0.039718
0.985425 0.193300 0.039402
0.988566 0.193278 0.039293
0.000000 0.241463 0.071895
0.000000 0.241417 0.071774
0.000000 0.241284 0.071424
0.000000 0.241071 0.070860
0.012416 0.240785 0.070100
0.037008 0.240436 0.069160
0.065936 0.240033 0.068058
0.098790 0.239583 0.066811
0.135159 0.239096 0.065436
0.174630 0.238580 0.063950
0.216793 0.238045 0.062371
0.261237 0.237497 0.060715
0.307548 0.236944 0.058999
0.355315 0.236393 0.057239
0.404125 0.235850 0.055450
0.453566 0.235321 0.053650
0.503224 0.234812 0.051853
0.552685 0.234325 0.050073
0.601537 0.233865 0.048326
0.649364 0.233435 0.046626
0.695752 0.233036 0.044987
0.740287 0.232671 0.043423
0.782553 0.232340 0.041946
0.822134 0.232044 0.040570
0.858615 0.231783 0.039308
0.891581 0.231557 0.038173
0.920616 0.231366 0.037177
0.945303 0.231209 0.036333
0.965228 0.231086 0.035654
0.979974 0.230997 0.035153
0.989126 0.230943 0.034842
0.992269 0.230924 0.034735
0.000000 0.280587 0.066485
0.000000 0.280544 0.066367
0.000000 0.280422 0.066022
0.000000 0.280227 0.065467
0.015858 0.279966 0.064719
0.040464 0.279647 0.063794
0.069410 0.279278 0.062710
0.102284 0.278869 0.061482
0.138675 0.278426 0.060130
0.178171 0.277959 0.058668
0.220360 0.277474 0.057115
0.264830 0.276980 0.055486
0.311169 0.276484 0.053798
0.358965 0.275991 0.052067
0.407805 0.275508 0.050308
0.457276 0.275040 0.048538
0.506964 0.274590 0.046771
0.556456 0.274164 0.045021
0.605337 0.273764 0.043304
0.653194 0.273391 0.041634
0.699610 0.273049 0.040023
0.744172 0.272738 0.038485
0.786463 0.272458 0.037034
0.826069 0.272211 0.035682
0.862572 0.271994 0.034443
0.895558 0.271808 0.033327
0.924611 0.271652 0.032349
0.949313 0.271525 0.031520
0.969250 0.271427 0.030853
0.984005 0.271356 0.030361
0.993162 0.271313 0.030056
0.996307 0.271298 0.029951
0.000000 0.322005 0.060878
0.000000 0.321967 0.060761
0.000000 0.321856 0.060422
0.000000 0.321680 0.059877
0.019578 0.321444 0.059141
0.044201 0.321157 0.058232
0.073165 0.320826 0.057167
0.106060 0.320458 0.055961
0.142475 0.320062 0.054631
0.181996 0.319646 0.053195
0.224212 0.319216 0.051669
0.268710 0.318779 0.050068
0.315080 0.318342 0.048410
0.362906 0.317910 0.046710
0.411778 0.317490 0.044983
0.461280 0.317085 0.043244
0.511000 0.316699 0.041509
0.560524 0.316337 0.039791
0.609436 0.315999 0.038105
0.657323 0.315688 0.036465
0.703770 0.315405 0.034884
0.748360 0.315151 0.033375
0.790678 0.314926 0.031951
0.830309 0.314729 0.030625
0.866836 0.314559 0.029408
0.899843 0.314415 0.028314
0.928914 0.314297 0.027355
0.953633 0.314201 0.026542
0.973582 0.314128 0.025887
0.988346 0.314076 0.025404
0.997510 0.314045 0.025105
1.000000 0.314034 0.025002
0.000000 0.365360 0.055138
0.000000 0.365326 0.055023
0.000000 0.365228 0.054691
0.003675 0.365071 0.054155
0.023557 0.364862 0.053433
0.048195 0.364607 0.052540
0.077179 0.364315 0.051494
0.110097 0.363992 0.050310
0.146535 0.363645 0.049005
0.186083 0.363281 0.047595
0.228327 0.362907 0.046097
0.272855 0.362530 0.044526
0.319256 0.362155 0.042899
0.367114 0.361787 0.041231
0.416018 0.361432 0.039536
0.465554 0.361093 0.037831
0.515307 0.360774 0.036129
0.564864 0.360477 0.034444
0.613809 0.360205 0.032791
0.661728 0.359958 0.031183
0.708205 0.359737 0.029633
0.752825 0.359543 0.028154
0.795172 0.359374 0.026758
0.834829 0.359230 0.025458
0.871381 0.359109 0.024266
0.904410 0.359009 0.023194
0.933500 0.358929 0.022253
0.958235 0.358867 0.021457
0.978197 0.358820 0.020816
0.992972 0.358788 0.020343
1.000000 0.358769 0.020050
1.000000 0.358762 0.019949
0.000000 0.410287 0.049328
0.000000 0.410258 0.049216
0.000000 0.410172 0.048889
0.007873 0.410035 0.048364
0.027769 0.409854 0.047655
0.052424 0.409633 0.046780
0.081428 0.409381 0.045753
0.114368 0.409103 0.044592
0.150832 0.408806 0.043312
0.190407 0.408497 0.041930
0.232680 0.408181 0.040461
0.277239 0.407865 0.038921
0.323671 0.407554 0.037325
0.371563 0.407253 0.035690
0.420501 0.406965 0.034029
0.470070 0.406694 0.032358
0.519858 0.406444 0.030690
0.569448 0.406215 0.029039
0.618427 0.406010 0.027420
0.666379 0.405829 0.025845
0.712889 0.405672 0.024327
0.757539 0.405539 0.022878
0.799915 0.405428 0.021511
0.839600 0.405339 0.020239
0.876176 0.405268 0.019072
0.909228 0.405214 0.018022
0.938338 0.405173 0.017102
0.963090 0.405145 0.016323
0.983066 0.405126 0.015695
0.997851 0.405114 0.015232
1.000000 0.405108 0.014945
1.000000 0.405105 0.014847
0.000000 0.456415 0.043507
0.000000 0.456390 0.043397
0.000000 0.456317 0.043077
0.012277 0.456201 0.042562
0.032186 0.456048 0.041867
0.056859 0.455862 0.041009
0.085884 0.455651 0.040003
0.118847 0.455419 0.038865
0.155336 0.455173 0.037611
0.194938 0.454920 0.036256
0.237242 0.454664 0.034817
0.281832 0.454411 0.033308
0.328297 0.454165 0.031745
0.376222 0.453931 0.030144
0.425194 0.453712 0.028517
0.474799 0.453511 0.026881
0.524621 0.453330 0.025248
0.574247 0.453171 0.023632
0.623260 0.453035 0.022047
0.671246 0.452921 0.020506
0.717788 0.452830 0.019020
0.762470 0.452759 0.017603
0.804875 0.452708 0.016266
0.844588 0.452674 0.015021
0.881190 0.452654 0.013880
0.914265 0.452646 0.012854
0.943395 0.452647 0.011954
0.968164 0.452654 0.011192
0.988155 0.452662 0.010579
1.000000 0.452671 0.010126
1.000000 0.452678 0.009845
1.000000 0.452680 0.009749
0.000000 0.503365 0.037730
0.000000 0.503344 0.037622
0.002111 0.503285 0.037308
0.016854 0.503190 0.036804
0.036777 0.503065 0.036124
0.061468 0.502914 0.035283
0.090513 0.502744 0.034298
0.123500 0.502559 0.033183
0.160015 0.502366 0.031955
0.199646 0.502168 0.030628
0.241979 0.501973 0.029219
0.286601 0.501783 0.027742
0.333099 0.501603 0.026213
0.381059 0.501437 0.024645
0.430066 0.501288 0.023053
0.479705 0.501158 0.021452
0.529563 0.501048 0.019855
0.579224 0.500959 0.018274
0.628272 0.500893 0.016724
0.676292 0.500847 0.015217
0.722867 0.500822 0.013764
0.767581 0.500815 0.012379
0.810016 0.500824 0.011072
0.849757 0.500846 0.009856
0.886385 0.500879 0.008740
0.919484 0.500918 0.007738
0.948635 0.500960 0.006858
0.973422 0.501001 0.006114
0.993426 0.501039 0.005515
1.000000 0.501068 0.005072
1.000000 0.501088 0.004799
1.000000 0.501095 0.004705
0.000000 0.550750 0.032048
0.000000 0.550734 0.031942
0.006817 0.550687 0.031635
0.021570 0.550614 0.031141
0.041508 0.550517 0.030475
0.066216 0.550402 0.029652
0.095282 0.550273 0.028688
0.128292 0.550135 0.027597
0.164833 0.549994 0.026395
0.204492 0.549853 0.025097
0.246856 0.549718 0.023718
0.291510 0.549592 0.022273
0.338041 0.549479 0.020776
0.386035 0.549381 0.019243
0.435077 0.549302 0.017686
0.484752 0.549242 0.016120
0.534645 0.549204 0.014558
0.584342 0.549186 0.013014
0.633425 0.549190 0.011498
0.681479 0.549213 0.010025
0.728087 0.549254 0.008606
0.772832 0.549310 0.007252
0.815298 0.549380 0.005976
0.855067 0.549459 0.004788
0.891722 0.549544 0.003698
0.924844 0.549630 0.002719
0.954016 0.549714 0.001861
0.978820 0.549790 0.001134
0.998839 0.549856 0.000549
1.000000 0.549907 0.000117
1.000000 0.549939 0.000000
1.000000 0.549951 0.000000
0.000000 0.598176 0.026509
0.002459 0.598164 0.026405
0.011621 0.598130 0.026105
0.026385 0.598078 0.025621
0.046337 0.598009 0.024970
0.071063 0.597929 0.024164
0.100149 0.597842 0.023220
0.133183 0.597751 0.022153
0.169750 0.597662 0.020977
0.209438 0.597578 0.019707
0.251831 0.597503 0.018358
0.296517 0.597440 0.016945
0.343081 0.597393 0.015481
0.391109 0.597364 0.013982
0.440186 0.597354 0.012460
0.489896 0.597365 0.010930
0.539825 0.597397 0.009403
0.589557 0.597450 0.007894
0.638675 0.597523 0.006413
0.686763 0.597615 0.004974
0.733404 0.597722 0.003588
0.778181 0.597842 0.002266
0.820677 0.597972 0.001020
0.860474 0.598107 0.000000
0.897155 0.598244 0.000000
0.930300 0.598377 0.000000
0.959493 0.598502 0.000000
0.984315 0.598614 0.000000
1.000000 0.598708 0.000000
1.000000 0.598780 0.000000
1.000000 0.598825 0.000000
1.000000 0.598841 0.000000
0.004165 0.645240 0.021155
0.007314 0.645232 0.021054
0.016482 0.645211 0.020760
0.031256 0.645179 0.020287
0.051222 0.645139 0.019649
0.075965 0.645094 0.018861
0.105072 0.645047 0.017938
0.138129 0.645003 0.016893
0.174722 0.644965 0.015743
0.214437 0.644936 0.014501
0.256861 0.644921 0.013182
0.301578 0.644921 0.011800
0.348175 0.644939 0.010369
0.396236 0.644977 0.008904
0.445347 0.645036 0.007416
0.495093 0.645117 0.005920
0.545057 0.645219 0.004429
0.594823 0.645342 0.002954
0.643975 0.645484 0.001508
0.692097 0.645642 0.000103
0.738771 0.645815 0.000000
0.783580 0.645998 0.000000
0.826105 0.646187 0.000000
0.865930 0.646378 0.000000
0.902636 0.646566 0.000000
0.935805 0.646745 0.000000
0.965018 0.646911 0.000000
0.989857 0.647058 0.000000
1.000000 0.647180 0.000000
1.000000 0.647273 0.000000
1.000000 0.647331 0.000000
1.000000 0.647351 0.000000
0.009027 0.691531 0.016028
0.012177 0.691528 0.015929
0.021352 0.691520 0.015641
0.036137 0.691508 0.015178
0.056116 0.691495 0.014554
0.080876 0.691484 0.013783
0.110003 0.691477 0.012879
0.143083 0.691478 0.011858
0.179701 0.691490 0.010732
0.219443 0.691517 0.009517
0.261896 0.691559 0.008227
0.306644 0.691621 0.006876
0.353272 0.691703 0.005477
0.401367 0.691807 0.004045
0.450512 0.691933 0.002591
0.500291 0.692082 0.001129
0.550289 0.692253 0.000000
0.600090 0.692444 0.000000
0.649276 0.692653 0.000000
0.697430 0.692877 0.000000
0.744136 0.693114 0.000000
0.788976 0.693358 0.000000
0.831530 0.693605 0.000000
0.871383 0.693851 0.000000
0.908114 0.694089 0.000000
0.941305 0.694314 0.000000
0.970538 0.694520 0.000000
0.995394 0.694701 0.000000
1.000000 0.694850 0.000000
1.000000 0.694963 0.000000
1.000000 0.695034 0.000000
1.000000 0.695059 0.000000
0.013847 0.736632 0.011161
0.017000 0.736634 0.011064
0.026181 0.736638 0.010782
0.040975 0.736645 0.010329
0.060968 0.736659 0.009719
0.085744 0.736681 0.008964
0.114891 0.736713 0.008080
0.147992 0.736758 0.007080
0.184635 0.736819 0.005979
0.224404 0.736898 0.004791
0.266884 0.736997 0.003529
0.311662 0.737118 0.002207
0.358322 0.737262 0.000840
0.406448 0.737430 0.000000
0.455625 0.737622 0.000000
0.505438 0.737837 0.000000
0.555469 0.738074 0.000000
0.605303 0.738331 0.000000
0.654522 0.738605 0.000000
0.702708 0.738894 0.000000
0.749445 0.739192 0.000000
0.794314 0.739496 0.000000
0.836897 0.739800 0.000000
0.876776 0.740098 0.000000
0.913531 0.740385 0.000000
0.946745 0.740654 0.000000
0.975997 0.740899 0.000000
1.000000 0.741112 0.000000
1.000000 0.741288 0.000000
1.000000 0.741421 0.000000
1.000000 0.741504 0.000000
1.000000 0.741533 0.000000
0.018572 0.780119 0.006588
0.021726 0.780124 0.006493
0.030913 0.780140 0.006217
0.045717 0.780167 0.005773
0.065723 0.780206 0.005175
0.090515 0.780259 0.004437
0.119680 0.780329 0.003571
0.152803 0.780416 0.002592
0.189468 0.780524 0.001515
0.229263 0.780653 0.000352
0.271770 0.780807 0.000000
0.316577 0.780985 0.000000
0.363266 0.781188 0.000000
0.411423 0.781418 0.000000
0.460632 0.781672 0.000000
0.510476 0.781951 0.000000
0.560539 0.782251 0.000000
0.610405 0.782572 0.000000
0.659655 0.782909 0.000000
0.707872 0.783259 0.000000
0.754639 0.783617 0.000000
0.799536 0.783978 0.000000
0.842146 0.784336 0.000000
0.882050 0.784685 0.000000
0.918829 0.785019 0.000000
0.952064 0.785330 0.000000
0.981335 0.785612 0.000000
1.000000 0.785857 0.000000
1.000000 0.786058 0.000000
1.000000 0.786210 0.000000
1.000000 0.786305 0.000000
1.000000 0.786338 0.000000
0.023144 0.821560 0.002337
0.026300 0.821569 0.002244
0.035493 0.821596 0.001974
0.050305 0.821641 0.001539
0.070323 0.821704 0.000953
0.095131 0.821788 0.000230
0.124313 0.821892 0.000000
0.157456 0.822020 0.000000
0.194144 0.822172 0.000000
0.233962 0.822350 0.000000
0.276496 0.822554 0.000000
0.321329 0.822787 0.000000
0.368047 0.823047 0.000000
0.416233 0.823334 0.000000
0.465471 0.823648 0.000000
0.515346 0.823987 0.000000
0.565439 0.824348 0.000000
0.615335 0.824729 0.000000
0.664614 0.825126 0.000000
0.712861 0.825534 0.000000
0.759656 0.825948 0.000000
0.804580 0.826363 0.000000
0.847216 0.826772 0.000000
0.887144 0.827170 0.000000
0.923945 0.827548 0.000000
0.957200 0.827899 0.000000
0.986489 0.828216 0.000000
1.000000 0.828491 0.000000
1.000000 0.828717 0.000000
1.000000 0.828887 0.000000
1.000000 0.828993 0.000000
1.000000 0.829029 0.000000
0.027503 0.860520 0.000000
0.030662 0.860532 0.000000
0.039859 0.860570 0.000000
0.054680 0.860631 0.000000
0.074709 0.860717 0.000000
0.099531 0.860829 0.000000
0.128730 0.860966 0.000000
0.161891 0.861131 0.000000
0.198600 0.861325 0.000000
0.238441 0.861548 0.000000
0.280998 0.861801 0.000000
0.325857 0.862084 0.000000
0.372601 0.862397 0.000000
0.420815 0.862739 0.000000
0.470081 0.863108 0.000000
0.519984 0.863503 0.000000
0.570105 0.863921 0.000000
0.620029 0.864358 0.000000
0.669337 0.864811 0.000000
0.717610 0.865273 0.000000
0.764432 0.865740 0.000000
0.809382 0.866206 0.000000
0.852042 0.866664 0.000000
0.891992 0.867106 0.000000
0.928814 0.867526 0.000000
0.962087 0.867915 0.000000
0.991393 0.868265 0.000000
1.000000 0.868568 0.000000
1.000000 0.868817 0.000000
1.000000 0.869003 0.000000
1.000000 0.869119 0.000000
1.000000 0.869159 0.000000
0.031588 0.896556 0.000000
0.034748 0.896572 0.000000
0.043950 0.896619 0.000000
0.058779 0.896696 0.000000
0.078818 0.896803 0.000000
0.103653 0.896940 0.000000
0.132867 0.897109 0.000000
0.166046 0.897308 0.000000
0.202774 0.897540 0.000000
0.242635 0.897804 0.000000
0.285215 0.898102 0.000000
0.330097 0.898431 0.000000
0.376866 0.898793 0.000000
0.425104 0.899185 0.000000
0.474396 0.899606 0.000000
0.524325 0.900053 0.000000
0.574473 0.900523 0.000000
0.624422 0.901013 0.000000
0.673756 0.901516 0.000000
0.722054 0.902029 0.000000
0.768900 0.902545 0.000000
0.813873 0.903057 0.000000
0.856556 0.903559 0.000000
0.896527 0.904043 0.000000
0.933368 0.904501 0.000000
0.966658 0.904925 0.000000
0.995979 0.905305 0.000000
1.000000 0.905634 0.000000
1.000000 0.905904 0.000000
1.000000 0.906106 0.000000
1.000000 0.906232 0.000000
1.000000 0.906275 0.000000
0.035333 0.929226 0.000000
0.038495 0.929245 0.000000
0.047702 0.929301 0.000000
0.062537 0.929392 0.000000
0.082586 0.929518 0.000000
0.107432 0.929678 0.000000
0.136660 0.929874 0.000000
0.169855 0.930105 0.000000
0.206600 0.930371 0.000000
0.246480 0.930673 0.000000
0.289080 0.931010 0.000000
0.333983 0.931382 0.000000
0.380774 0.931788 0.000000
0.429035 0.932226 0.000000
0.478350 0.932693 0.000000
0.528302 0.933187 0.000000
0.578474 0.933704 0.000000
0.628447 0.934240 0.000000
0.677803 0.934790 0.000000
0.726125 0.935349 0.000000
0.772992 0.935908 0.000000
0.817987 0.936463 0.000000
0.860689 0.937005 0.000000
0.900679 0.937527 0.000000
0.937538 0.938019 0.000000
0.970844 0.938474 0.000000
1.000000 0.938882 0.000000
1.000000 0.939235 0.000000
1.000000 0.939523 0.000000
1.000000 0.939739 0.000000
1.000000 0.939873 0.000000
1.000000 0.939920 0.000000
0.038675 0.958083 0.000000
0.041838 0.958105 0.000000
0.051049 0.958168 0.000000
0.065891 0.958271 0.000000
0.085948 0.958414 0.000000
0.110804 0.958595 0.000000
0.140045 0.958815 0.000000
0.173253 0.959073 0.000000
0.210013 0.959370 0.000000
0.249910 0.959705 0.000000
0.292527 0.960078 0.000000
0.337449 0.960487 0.000000
0.384259 0.960931 0.000000
0.432540 0.961409 0.000000
0.481876 0.961917 0.000000
0.531849 0.962453 0.000000
0.582041 0.963011 0.000000
0.632035 0.963589 0.000000
0.681412 0.964180 0.000000
0.729753 0.964778 0.000000
0.776640 0.965376 0.000000
0.821653 0.965968 0.000000
0.864373 0.966546 0.000000
0.904380 0.967100 0.000000
0.941253 0.967623 0.000000
0.974573 0.968106 0.000000
1.000000 0.968538 0.000000
1.000000 0.968911 0.000000
1.000000 0.969216 0.000000
1.000000 0.969444 0.000000
1.000000 0.969586 0.000000
1.000000 0.969635 0.000000
0.041549 0.982681 0.000000
0.044713 0.982705 0.000000
0.053926 0.982774 0.000000
0.068774 0.982888 0.000000
0.088838 0.983045 0.000000
0.113703 0.983244 0.000000
0.142954 0.983484 0.000000
0.176174 0.983766 0.000000
0.212947 0.984089 0.000000
0.252858 0.984452 0.000000
0.295490 0.984854 0.000000
0.340428 0.985295 0.000000
0.387254 0.985773 0.000000
0.435552 0.986284 0.000000
0.484905 0.986827 0.000000
0.534896 0.987398 0.000000
0.585106 0.987992 0.000000
0.635117 0.988604 0.000000
0.684511 0.989230 0.000000
0.732870 0.989862 0.000000
0.779773 0.990494 0.000000
0.824802 0.991117 0.000000
0.867537 0.991725 0.000000
