assets/luts/cinematic.cube
TITLE "Cinematic Teal Orange"
LUT_3D_SIZE 5
DOMAIN_MIN 0.000000 0.000000 0.000000
DOMAIN_MAX 0.903226 0.903226 0.903226
0.000000 0.050000 0.100000
0.082739 0.047314 0.094513
0.387151 0.041735 0.082230
0.722298 0.036526 0.069187
0.946561 0.033584 0.060740
0.000000 0.171509 0.081845
0.092721 0.169336 0.076615
0.397721 0.164934 0.064920
0.733515 0.161018 0.052524
0.958210 0.158941 0.044509
0.000000 0.456415 0.043507
0.118847 0.455419 0.038865
0.425194 0.453712 0.028517
0.762470 0.452759 0.017603
0.988155 0.452662 0.010579
0.018572 0.780119 0.006588
0.152803 0.780416 0.002592
0.460632 0.781672 0.000000
0.799536 0.783978 0.000000
1.000000 0.786058 0.000000
0.043889 1.000000 0.000000
0.178552 1.000000 0.000000
0.487372 1.000000 0.000000
0.827365 1.000000 0.000000
1.000000 1.000000 0.000000
0.000000 0.049071 0.228067
0.083708 0.046436 0.222606
0.388179 0.040976 0.210382
0.723391 0.035898 0.197404
0.947698 0.033043 0.189001
0.000000 0.170754 0.209999
0.093777 0.168633 0.204795
0.398836 0.164349 0.193159
0.734695 0.160564 0.180829
0.959434 0.158574 0.172858
0.000000 0.456060 0.171860
0.120102 0.455115 0.167244
0.426509 0.453527 0.156956
0.763850 0.452705 0.146107
0.989579 0.452695 0.139126
0.020021 0.780203 0.135161
0.154278 0.780552 0.131192
0.462166 0.781926 0.122385
0.801136 0.784363 0.113165
1.000000 0.786531 0.107273
0.045485 1.000000 0.113688
0.180174 1.000000 0.110151
0.489053 1.000000 0.102335
0.829111 1.000000 0.094204
1.000000 1.000000 0.089039
0.000000 0.047008 0.521518
0.085960 0.044492 0.516117
0.390567 0.039304 0.504029
0.725929 0.034525 0.491201
0.950335 0.031870 0.482898
0.000000 0.169091 0.503651
0.096228 0.167088 0.498506
0.401424 0.163077 0.487006
0.737432 0.159591 0.474825
0.962271 0.157801 0.466954
0.000000 0.455312 0.465970
0.123012 0.454486 0.461413
0.429555 0.453169 0.451261
0.767045 0.452647 0.440561
0.992874 0.452837 0.433681
0.023374 0.780461 0.429773
0.157690 0.780929 0.425863
0.465715 0.782576 0.417193
0.804834 0.785311 0.408122
1.000000 0.787679 0.402330
0.049175 1.000000 0.408637
0.183923 1.000000 0.405159
0.492938 1.000000 0.397479
0.833146 1.000000 0.389497
1.000000 1.000000 0.384433
0.000000 0.044846 0.844206
0.088489 0.042461 0.838870
0.393246 0.037572 0.826932
0.728772 0.033122 0.814269
0.953289 0.030687 0.806075
0.000000 0.167368 0.826558
0.098977 0.165497 0.821479
0.404322 0.161784 0.810129
0.740495 0.158627 0.798112
0.965444 0.157057 0.790351
0.000000 0.454596 0.789380
0.126264 0.453901 0.784889
0.432956 0.452883 0.774887
0.770611 0.452689 0.764352
0.996550 0.453100 0.757581
0.027114 0.780852 0.753737
0.161496 0.781450 0.749893
0.469670 0.783396 0.741372
0.808954 0.786460 0.732466
1.000000 0.789048 0.726784
0.053284 1.000000 0.732971
0.188098 1.000000 0.729558
0.497262 1.000000 0.722028
0.837635 1.000000 0.714210
1.000000 1.000000 0.709256
0.000000 0.043464 1.000000
0.090211 0.041166 1.000000
0.395068 0.036477 1.000000
0.730704 0.032247 1.000000
0.955294 0.029959 1.000000
0.000000 0.166280 1.000000
0.100846 0.164495 1.000000
0.406291 0.160983 1.000000
0.742574 0.158045 1.000000
0.967596 0.156622 1.000000
0.000000 0.454180 1.000000
0.128468 0.453572 1.000000
0.435261 0.452754 0.991210
0.773026 0.452780 0.980785
0.999038 0.453338 0.974088
0.029645 0.781175 0.970287
0.164070 0.781860 0.966486
0.472344 0.784006 0.958065
0.811738 0.787290 0.949269
1.000000 0.790025 0.943660
0.056062 1.000000 0.949768
0.190920 1.000000 0.946399
0.500184 1.000000 0.938968
0.840666 1.000000 0.931261
1.000000 1.000000 0.926380
